img/shield.svg

<svg width="62" height="74" viewBox="0 0 62 74" fill="none" xmlns="http://www.w3.org/2000/svg">
<path d="M61.9204 19.0536C61.8825 17.0557 61.8464 15.1683 61.8464 13.3424C61.8464 11.9119 60.6904 10.7522 59.2637 10.7522C48.2184 10.7522 39.8089 7.56873 32.7991 0.73341C31.7963 -0.244643 30.2006 -0.244297 29.1982 0.73341C22.1891 7.56873 13.7809 10.7522 2.73633 10.7522C1.31 10.7522 0.153644 11.9119 0.153644 13.3424C0.153644 15.1687 0.117831 17.0567 0.079607 19.055C-0.274393 37.6477 -0.759247 63.1112 30.1527 73.857C30.4268 73.9523 30.7126 74 30.9985 74C31.2843 74 31.5704 73.9523 31.8442 73.857C62.7586 63.1109 62.2744 37.6466 61.9204 19.0536ZM30.9988 68.6611C4.48773 59.0025 4.88856 37.8442 5.24429 19.1538C5.26564 18.032 5.2863 16.9448 5.30076 15.8791C15.6453 15.4412 23.9174 12.2974 30.9988 6.11063C38.0809 12.2974 46.3544 15.4415 56.6996 15.8791C56.7141 16.9445 56.7347 18.031 56.7561 19.152C57.1115 37.8431 57.5119 59.0022 30.9988 68.6611Z" fill="white"/>
<path d="M39.8925 28.0021L27.4271 40.5031L22.1078 35.1683C21.0992 34.1571 19.4639 34.1571 18.4556 35.1683C17.447 36.1802 17.447 37.82 18.4556 38.8315L25.601 45.9977C26.1052 46.5033 26.7663 46.7561 27.4271 46.7561C28.088 46.7561 28.7491 46.5033 29.2533 45.9977L43.5445 31.6654C44.5534 30.6538 44.5534 29.0137 43.5448 28.0025C42.5365 26.9909 40.9012 26.9906 39.8925 28.0021Z" fill="white"/>
</svg>

<svg width="62" height="74" fill="none" xmlns="http://www.w3.org/2000/svg"><path d="M61.92 19.054c-.038-1.998-.074-3.886-.074-5.712 0-1.43-1.156-2.59-2.582-2.59-11.046 0-19.455-3.183-26.465-10.019a2.577 2.577 0 00-3.6 0c-7.01 6.836-15.418 10.02-26.463 10.02a2.586 2.586 0 00-2.582 2.59c0 1.826-.036 3.714-.074 5.712-.354 18.593-.84 44.056 30.073 54.802a2.575 2.575 0 001.691 0c30.915-10.746 30.43-36.21 30.076-54.803zM31 68.66C4.488 59.002 4.889 37.844 5.244 19.154c.022-1.122.042-2.21.057-3.275 10.344-.438 18.616-3.582 25.698-9.768 7.082 6.186 15.355 9.33 25.7 9.768.015 1.066.036 2.152.057 3.273.355 18.691.756 39.85-25.757 49.51z" fill="#fff"/><path d="M39.892 28.002L27.427 40.503l-5.32-5.335a2.578 2.578 0 00-3.651 0 2.596 2.596 0 000 3.663l7.145 7.167a2.571 2.571 0 001.826.758c.661 0 1.322-.253 1.826-.758l14.291-14.333a2.595 2.595 0 000-3.662 2.577 2.577 0 00-3.651 0z" fill="#fff"/></svg>
